X:39
T:Alborada del Centru (MQ 007)
R:Alborada
C:Tradicional
S:Msica Tradicional Asturiana, (C) Tello & Tito. Asturies, 2001.
S:http://pagina.de/MusTradAst <telloytito@asturies.org>
N:Alborada propia de la zona central.
N:Es una de las piezas obligatorias en casi todos los concursos de gaita.
A:Asturies
O:Centru d'Asturies
Z:Manolo Quirs 007
M:2/4
L:1/16
Q:1/4=100
K:C
B,CB,C
|: DDDE DEDE|DDDE DEDE|DDDE DDDE|DDDE DEDE|D4 CB,CD|
EEEF EFEF|EEEF EFEF|EEEF EEEF|EEEF EFEF|E4 DCB,C|
DDDE DEDE|DDDE DEDE|DDDE DDDE|DDDE DEDE|D4 CB,CD|
EFED ECDE|FGFE FDEF|GAGF GEFG|ABAG AFGA|BcBA BGAB|
c2>e2 c2>e2|cece c2>d2|BdBd c2>e2|cece c2>d2|BdBd c2>d2|
efed c2>d2|eded c2>d2|efed c2>d2|eded c2>B2|
AGAB c2>B2|AGAB c2>B2|AGAB cBAG|AGAB cBAG|cBAG F2>c2|
F2>c2 F2>c2|FcFc FFFc|EcEc EEEc|DcDc DDDA|
FAFA FFFA|EAEA EEEA|DADA DDDG|
FGFG FFFG|EGEG EEEG|DGDG DDDc|
FcFc (4FFFF A|EAEA (4EEEE G|DGDG (4DDDD C|
B,CDE D2>C2|B,CDE D2>C2|B,CDE FGFE|
FEFD EFED|EDEF DEDB,|DB,DE C4-|[1 C4 B,CB,C :|[2 C8||
